ufans-frontend-package/public/assets/images/new-home/icon/video-call-1.svg

<svg xmlns="http://www.w3.org/2000/svg" width="512" height="354" viewBox="0 0 512 354">
  <path id="video-call-1" d="M492,175a20,20,0,0,0,20-20V99.073a60,60,0,0,0-96.1-47.927l-.522.393L354,104.388V80A80.091,80.091,0,0,0,274,0H80A80.091,80.091,0,0,0,0,80V274a80.091,80.091,0,0,0,80,80H274a80.091,80.091,0,0,0,80-80V250.612l60.886,52.423,1.018.819A60,60,0,0,0,512,255.927a20,20,0,0,0-40,0,20,20,0,0,1-31.591,16.3L354,197.828V157.172l86.409-74.4A20,20,0,0,1,472,99.073V155A20,20,0,0,0,492,175ZM314,274a40.045,40.045,0,0,1-40,40H80a40.045,40.045,0,0,1-40-40V80A40.045,40.045,0,0,1,80,40H274a40.045,40.045,0,0,1,40,40Z" fill="#e44499"/>
</svg>

<svg width="512" height="354" viewBox="0 0 512 354" fill="none" xmlns="http://www.w3.org/2000/svg">
<path d="M492 175C503.046 175 512 166.046 512 155V99.073C512 76.174 499.271 55.6 478.778 45.38C458.288 35.16 434.193 37.369 415.903 51.146L415.381 51.539L354 104.388V80C354 35.888 318.112 0 274 0H80C35.888 0 0 35.888 0 80V274C0 318.112 35.888 354 80 354H274C318.112 354 354 318.112 354 274V250.612L414.886 303.035L415.904 303.854C426.566 311.884 439.195 315.984 451.937 315.984C461.055 315.984 470.232 313.883 478.779 309.62C499.271 299.4 512 278.826 512 255.927C512 244.881 503.046 235.927 492 235.927C480.954 235.927 472 244.881 472 255.927C472 263.676 467.86 270.366 460.927 273.824C454.155 277.201 446.526 276.595 440.409 272.225L354 197.828V157.172L440.409 82.774C446.527 78.405 454.154 77.798 460.927 81.175C467.86 84.633 472 91.324 472 99.073V155C472 166.046 480.954 175 492 175ZM314 274C314 296.056 296.056 314 274 314H80C57.944 314 40 296.056 40 274V80C40 57.944 57.944 40 80 40H274C296.056 40 314 57.944 314 80V274Z" fill="#6661E7"/>
</svg>
